X:84
T:reel de Beloeil
C:Edouard Picard
S:Laurence Beaudry
M:4/4
L:1/16
K:D
D3D DFEG FDDD F2DF | AdcB AGFE DFAd BGEC | 
D3D DFEG FDDD F2DF |1 AdcB AGFE DdAF D2C2 :|2 AdcB AGFE DdAF D2G2 |:
Fddd Fddd Gddd Gddd | Aeee Aeec dfed cBAG | 
Fddd Fddd Gddd Gddd |1 Aeee Aeec dfec dBAG :|2 Aeee Aeec dfec d4 |]

